_includes/icons/color-mind-map.svg

<svg fill="#666" height="50" viewBox="0 0 48 48" width="50" xmlns="http://www.w3.org/2000/svg"><path d="m39.398438 23-.796875-4-12.601563 2.601563v-13.601563h-4v12.300781l-13.898437-9-2.203125 3.398438 15.203125 9.800781-11.703125 15.300781 3.203125 2.398438 11.296875-14.800781 8.402343 12.703125 3.398438-2.203125-8.398438-12.5z" fill="#cfd8dc"/><path d="m31 24c0 3.867188-3.132812 7-7 7-3.867187 0-7-3.132812-7-7 0-3.867187 3.132813-7 7-7 3.867188 0 7 3.132813 7 7z" fill="#3f51b5"/><g fill="#00bcd4"><path d="m29 8c0 2.761719-2.238281 5-5 5s-5-2.238281-5-5 2.238281-5 5-5 5 2.238281 5 5z"/><path d="m44 21c0 2.761719-2.238281 5-5 5s-5-2.238281-5-5 2.238281-5 5-5 5 2.238281 5 5z"/><path d="m12 13c0 2.761719-2.238281 5-5 5s-5-2.238281-5-5 2.238281-5 5-5 5 2.238281 5 5z"/><path d="m16 41c0 2.761719-2.238281 5-5 5s-5-2.238281-5-5 2.238281-5 5-5 5 2.238281 5 5z"/><path d="m39 39c0 2.761719-2.238281 5-5 5s-5-2.238281-5-5 2.238281-5 5-5 5 2.238281 5 5z"/></g></svg>

<svg xmlns="http://www.w3.org/2000/svg" viewBox="0 0 48 48" width="50" height="50" fill="#666"><path d="M 39.398438 23 L 38.601563 19 L 26 21.601563 L 26 8 L 22 8 L 22 20.300781 L 8.101563 11.300781 L 5.898438 14.699219 L 21.101563 24.5 L 9.398438 39.800781 L 12.601563 42.199219 L 23.898438 27.398438 L 32.300781 40.101563 L 35.699219 37.898438 L 27.300781 25.398438 Z" fill="#cfd8dc"/><path d="M 31 24 C 31 27.867188 27.867188 31 24 31 C 20.132813 31 17 27.867188 17 24 C 17 20.132813 20.132813 17 24 17 C 27.867188 17 31 20.132813 31 24 Z" fill="#3f51b5"/><path d="M 29 8 C 29 10.761719 26.761719 13 24 13 C 21.238281 13 19 10.761719 19 8 C 19 5.238281 21.238281 3 24 3 C 26.761719 3 29 5.238281 29 8 Z" fill="#00bcd4"/><path d="M 44 21 C 44 23.761719 41.761719 26 39 26 C 36.238281 26 34 23.761719 34 21 C 34 18.238281 36.238281 16 39 16 C 41.761719 16 44 18.238281 44 21 Z" fill="#00bcd4"/><path d="M 12 13 C 12 15.761719 9.761719 18 7 18 C 4.238281 18 2 15.761719 2 13 C 2 10.238281 4.238281 8 7 8 C 9.761719 8 12 10.238281 12 13 Z" fill="#00bcd4"/><path d="M 16 41 C 16 43.761719 13.761719 46 11 46 C 8.238281 46 6 43.761719 6 41 C 6 38.238281 8.238281 36 11 36 C 13.761719 36 16 38.238281 16 41 Z" fill="#00bcd4"/><path d="M 39 39 C 39 41.761719 36.761719 44 34 44 C 31.238281 44 29 41.761719 29 39 C 29 36.238281 31.238281 34 34 34 C 36.761719 34 39 36.238281 39 39 Z" fill="#00bcd4"/></svg>
